storage/app/icons/phosphoricons/duotone/bezier-curve-duotone.svg

<svg xmlns="http://www.w3.org/2000/svg" fill="currentColor" viewBox="0 0 256 256"><path d="M152 80a24 24 0 1 1-24-24 24 24 0 0 1 24 24M40 152a24 24 0 1 0 24 24 24 24 0 0 0-24-24m176 0a24 24 0 1 0 24 24 24 24 0 0 0-24-24" opacity=".2"/><path d="M221.07 144.41A96.68 96.68 0 0 0 181 88h59a8 8 0 0 0 0-16h-81a32 32 0 0 0-62 0H16a8 8 0 0 0 0 16h59a96.68 96.68 0 0 0-40.07 56.41A32 32 0 1 0 51.08 146 80.6 80.6 0 0 1 99 93.44a32 32 0 0 0 58.06 0A80.6 80.6 0 0 1 204.92 146a32 32 0 1 0 16.15-1.57ZM56 176a16 16 0 1 1-16-16 16 16 0 0 1 16 16m72-80a16 16 0 1 1 16-16 16 16 0 0 1-16 16m88 96a16 16 0 1 1 16-16 16 16 0 0 1-16 16"/></svg>

<svg xmlns="http://www.w3.org/2000/svg" viewBox="0 0 256 256" fill="currentColor"><path d="M152,80a24,24,0,1,1-24-24A24,24,0,0,1,152,80ZM40,152a24,24,0,1,0,24,24A24,24,0,0,0,40,152Zm176,0a24,24,0,1,0,24,24A24,24,0,0,0,216,152Z" opacity="0.2"/><path d="M221.07,144.41A96.68,96.68,0,0,0,181,88h59a8,8,0,0,0,0-16H159a32,32,0,0,0-62,0H16a8,8,0,0,0,0,16H75a96.68,96.68,0,0,0-40.07,56.41A32,32,0,1,0,51.08,146,80.6,80.6,0,0,1,99,93.44a32,32,0,0,0,58.06,0A80.6,80.6,0,0,1,204.92,146a32,32,0,1,0,16.15-1.57ZM56,176a16,16,0,1,1-16-16A16,16,0,0,1,56,176Zm72-80a16,16,0,1,1,16-16A16,16,0,0,1,128,96Zm88,96a16,16,0,1,1,16-16A16,16,0,0,1,216,192Z"/></svg>
